!!!COA:	Josquin des Prez
!!!CDT:	~1450-1521/08/27
!!!OPR:	Missa Pro Defunctis
!!!ONM:	4
!!!OTL:	Offertory
!!!AGN:	Mass; Offertory
!!!SCT:	NJE 4.4
!!!SCA:	New Josquin Edition 4.4
!!!voices:	6
!!!voices-OPR:	6
**kern	**kern	**kern	**kern	**kern	**kern
*staff6	*staff5	*staff4	*staff3	*staff2	*staff1
*Ivox	*Ivox	*Ivox	*Ivox	*Ivox	*Ivox
*I"Bassus	*I"Tenor3	*I"Tenor2	*I"Tenor1	*I"Altus	*I"Superius
*I'B	*I'T3	*I'T2	*I'T1	*I'A	*I'S
*>[A,B]	*>[A,B]	*>[A,B]	*>[A,B]	*>[A,B]	*>[A,B]
*>A	*>A	*>A	*>A	*>A	*>A
*clefF4	*clefGv2	*clefGv2	*clefGv2	*clefGv2	*clefG2
*k[b-]	*k[b-]	*k[b-]	*k[b-]	*k[b-]	*k[b-]
*M2/1	*M2/1	*M2/1	*M2/1	*M2/1	*M2/1
*met(C|)	*met(C|)	*met(C|)	*met(C|)	*met(C|)	*met(C|)
=1-	=1-	=1-	=1-	=1-	=1-
!	!	!LO:TX:Z=8:t=Canon in subdiatessaron [at the lower fourth]; text&colon; "Circumdederunt me"	!	!	!
1r	0r	0r	0A	0e	[0a
1A	.	.	.	.	.
=2	=2	=2	=2	=2	=2
1F	0r	0r	1.c	[0f	0a]
1F	.	.	.	.	.
.	.	.	2c\	.	.
=3	=3	=3	=3	=3	=3
0B-	0r	0r	1d	1f]	0b-
.	.	.	1G	1d	.
=4	=4	=4	=4	=4	=4
0A	0r	0r	1r	0e	[0cc
.	.	.	1c	.	.
=5	=5	=5	=5	=5	=5
1r	0r	0r	2.A/	1r	0cc]
.	.	.	4B-\	.	.
1A	.	.	2.c\	1e	.
.	.	.	4B-\	.	.
=6	=6	=6	=6	=6	=6
1F	0r	0r	4c\	1.f	1.a
.	.	.	4A/	.	.
.	.	.	2.d\	.	.
1B-	.	.	.	.	.
.	.	.	4c\	.	.
.	.	.	4d\	4e\	2g/
.	.	.	4B-\	4d\	.
=7	=7	=7	=7	=7	=7
1A	0r	0r	1c	2e\	1a
.	.	.	.	2f\	.
[1G	.	.	1d	[1B-	[1b-
=8	=8	=8	=8	=8	=8
2G\]	0r	0r	0G	1B-]	2b-\]
2F\	.	.	.	.	2a/
1E	.	.	.	1c	[1g
=9	=9	=9	=9	=9	=9
0D	0r	0r	0A	0d	2g/]
.	.	.	.	.	4f/
.	.	.	.	.	4e/
.	.	.	.	.	1f
=10	=10	=10	=10	=10	=10
0C	0r	0r	1r	1.e	[0g
.	.	.	[1c	.	.
.	.	.	.	4d\	.
.	.	.	.	4c\	.
=11	=11	=11	=11	=11	=11
1r	0r	0r	1c]	1e	0g]
1G	.	.	1B-	[1d	.
=12	=12	=12	=12	=12	=12
1.F	0r	0r	1A	2d\]	1r
.	.	.	.	4c\	.
.	.	.	.	4B-\	.
.	.	.	1d	1A	[1a
2G\	.	.	.	.	.
=13	=13	=13	=13	=13	=13
1A	0r	0r	1c	0r	1a]
1B-	.	.	1d	.	1f
=14	=14	=14	=14	=14	=14
[0G	0r	0B-	0r	1d	1g
.	.	.	.	2d\	1g
.	.	.	.	2d\	.
=15	=15	=15	=15	=15	=15
0G]	0r	1B-	0r	1.d	0g
.	.	1B-	.	.	.
.	.	.	.	2e\	.
=16	=16	=16	=16	=16	=16
2.F\	0F	0c	0r	1f	[0a
4G\	.	.	.	.	.
1A	.	.	.	2f\	.
.	.	.	.	2f\	.
=17	=17	=17	=17	=17	=17
1D	1F	0A	1d	0f	0a]
2D\	1F	.	2d\	.	.
2D\	.	.	2d\	.	.
=18	=18	=18	=18	=18	=18
1G	0G	0B-	1d	1r	1g
1GG	.	.	2d\	1d	1g
.	.	.	2d\	.	.
=19	=19	=19	=19	=19	=19
1C	0E	0c	1.G	1e	1.g
1C	.	.	.	1c	.
.	.	.	4F/	.	2g/
.	.	.	4E/	.	.
=20	=20	=20	=20	=20	=20
0BB-	0F	[0d	1D	0f	1b-
.	.	.	2.d\	.	1b-
.	.	.	4c\	.	.
=21	=21	=21	=21	=21	=21
0r	0G	0d]	4B-\	1d	2b-\
.	.	.	4A/	.	.
.	.	.	2.B-\	.	2b-\
.	.	.	.	1B-	2b-\
.	.	.	4A/	.	.
.	.	.	2G/	.	2b-\
=22	=22	=22	=22	=22	=22
0r	[0A	0r	1F	2c\	2.a/
.	.	.	.	2F/	.
.	.	.	.	.	4g/
.	.	.	2D/	2.f\	4a/
.	.	.	.	.	4b-\
.	.	.	[2F/	.	[2a/
.	.	.	.	4e\	.
=23	=23	=23	=23	=23	=23
1r	0A]	1r	4F/]	2c\	4a/]
.	.	.	4E/	.	4g/
.	.	.	2C/	2e\	1g
1D	.	[1d	2D/	1d	.
.	.	.	[2d\	.	2f#i/
=24	=24	=24	=24	=24	=24
1G	0r	1d]	4d\]	1B-	0g
.	.	.	4c\	.	.
.	.	.	4B-\	.	.
.	.	.	4A/	.	.
1G	.	1d	1B-	2r	.
.	.	.	.	2G/	.
=25	=25	=25	=25	=25	=25
1E-	1r	1e-	1.c	1G	1r
[1F	[1A	1c	.	1F	[1a
.	.	.	2A/	.	.
=26	=26	=26	=26	=26	=26
2F\]	1A]	0d	1A	1f	1a]
2D\	.	.	.	.	.
1D	1A	.	2r	1f	1f
.	.	.	2D/	.	.
=27	=27	=27	=27	=27	=27
1r	1B-	0B-	1G	[0d	1g
1GG	1G	.	1D	.	1g
=28	=28	=28	=28	=28	=28
0D	0A	0r	2.F/	1.d]	2r
.	.	.	.	.	2d/
.	.	.	4G/	.	.
.	.	.	4A/	.	[1f
.	.	.	4B-\	.	.
.	.	.	[2A/	4c\	.
.	.	.	.	4B-\	.
=29	=29	=29	=29	=29	=29
1D	0F	1.d	4A/]	1A	2f/]
.	.	.	4G/	.	.
.	.	.	4F/	.	4g/
.	.	.	4E/	.	4a/
1BB-	.	.	1D	1r	[1b-
.	.	2d\	.	.	.
=30	=30	=30	=30	=30	=30
0E-i	0r	1e-i	0r	1.G	2b-\]
.	.	.	.	.	8b-/L
.	.	.	.	.	8a/
.	.	.	.	.	8g/
.	.	.	.	.	8f/J
.	.	1c	.	.	1g
.	.	.	.	2G/	.
=31	=31	=31	=31	=31	=31
0D	1.A	0d	1r	1A	0f
.	.	.	2r	1F	.
.	2A/	.	2d\	.	.
=32	=32	=32	=32	=32	=32
1G	1B-	0B-	2d\	1G	0r
.	.	.	2d\	.	.
2G\	1G	.	2d\	2.B-\	.
2G\	.	.	[2e\	.	.
.	.	.	.	4c\	.
=33	=33	=33	=33	=33	=33
2F\	0A	0r	4e\]	4d\	1r
.	.	.	4d\	4e\	.
2D\	.	.	1d	2.f\	.
1A	.	.	.	.	[1a
.	.	.	.	4e\	.
.	.	.	2c\	2e\	.
=34	=34	=34	=34	=34	=34
0D	0F	1.d	2.d\	2d\	1a]
.	.	.	.	2.f\	.
.	.	.	8c\L	.	.
.	.	.	8B-\J	.	.
.	.	.	4A/	.	1f
.	.	.	4G/	4e\	.
.	.	2d\	2A/	4d\	.
.	.	.	.	4c\	.
=35	=35	=35	=35	=35	=35
0r	0r	1e-i	2.G/	1B-	2g/
.	.	.	.	.	2b-\
.	.	.	8F/L	.	.
.	.	.	8G/J	.	.
.	.	1c	2F/	1r	2a/
.	.	.	2E/	.	[2g/
=36	=36	=36	=36	=36	=36
0D	1.A	0d	1D	1r	2g/]
.	.	.	.	.	4f#i/
.	.	.	.	.	4e/
.	.	.	2r	[1d	1f#i
.	2A/	.	2D/	.	.
=37	=37	=37	=37	=37	=37
1GG	1B-	0B-	1D	2d\]	0g
.	.	.	.	2c\	.
1GG	1G	.	1D	1B-	.
=38	=38	=38	=38	=38	=38
[0D	0A	0r	1.F	1A	1r
.	.	.	.	1F	[1a
.	.	.	2G/	.	.
=39	=39	=39	=39	=39	=39
0D]	0F	0r	1.A	1.f	1a]
.	.	.	.	.	1f
.	.	.	4G/	4e\	.
.	.	.	4F/	4d\	.
=40	=40	=40	=40	=40	=40
1C	0r	0r	1c	1e	1g
1BB-	.	.	[1d	[1f	[1b-
=41	=41	=41	=41	=41	=41
0F	0r	0r	1d]	1f]	1b-]
.	.	.	1c	1f	[1a
=42	=42	=42	=42	=42	=42
0G	0r	0r	1B-	1e	1a]
.	.	.	1G	2.d\	1g
.	.	.	.	4e\	.
=43	=43	=43	=43	=43	=43
0D	0r	0r	0d	2f\	0a
.	.	.	.	1g	.
.	.	.	.	2f#i\	.
=44	=44	=44	=44	=44	=44
2r	0r	0B-	2.d\	1g	[0g
2G\	.	.	.	.	.
.	.	.	4c\	.	.
2.G\	.	.	2B-\	1d	.
.	.	.	2A/	.	.
4F\	.	.	.	.	.
=45	=45	=45	=45	=45	=45
2E-i\	0r	1B-	0G	0e-	0g]
2D\	.	.	.	.	.
1C	.	1c	.	.	.
=46	=46	=46	=46	=46	=46
1D	0F	1A	1F	2.d\	0r
.	.	.	.	4c\	.
[1BB-	.	2B-\	1D	4d\	.
.	.	.	.	4e\	.
.	.	[2d\	.	[2f\	.
=47	=47	=47	=47	=47	=47
2BB-/]	1F	4d\]	2r	4f\]	0r
.	.	4c\	.	4e\	.
2AA/	.	1c	2A/	4c\	.
.	.	.	.	4d\	.
1GG	1G	.	2B-\	2e-i\	.
.	.	2B-\	[2G/	2d\	.
=48	=48	=48	=48	=48	=48
1C	1E	0c	4G/]	2G/	1cc
.	.	.	4F/	.	.
.	.	.	4G/	2g\	.
.	.	.	4E/	.	.
1r	2F/	.	2.A/	2.f\	2.cc\
.	[2A/	.	.	.	.
.	.	.	4B-\	8e\L	4b-\
.	.	.	.	8d\J	.
=49	=49	=49	=49	=49	=49
0r	4A/]	0r	4c\	4e\	4a/
.	4G/	.	4A/	4f\	4g/
.	1G	.	2d\	2g\	1b-
.	.	.	2G/	2e\	.
.	2F/	.	[2d\	2f\	[2a/
=50	=50	=50	=50	=50	=50
1r	0G	0r	4d\]	0d	2a/]
.	.	.	4c\	.	.
.	.	.	4B-\	.	4g/
.	.	.	4A/	.	4f/
1GG	.	.	1B-	.	1g
=51	=51	=51	=51	=51	=51
1D	0r	1r	1A	2r	1a
.	.	.	.	1d	.
2D\	.	1d	2r	.	1f
2D\	.	.	2F/	2A/	.
=52	=52	=52	=52	=52	=52
1C	0r	1.e-i	2E-i/	2.c\	1g
.	.	.	2C/	.	.
.	.	.	.	4c\	.
1r	.	.	2.G/	2B-\	1b-
.	.	2d\	.	2G/	.
.	.	.	4D/	.	.
=53	=53	=53	=53	=53	=53
1r	1r	2c\	2F/	2A/	2a/
.	.	2B-\	2G/	1d	2g/
1F	1A	1A	2D/	.	1a
.	.	.	[2d\	2d\	.
=54	=54	=54	=54	=54	=54
1G	1.B-	1G	2d\]	1B-	1d
.	.	.	2G/	.	.
[1B-	.	1r	2.d\	1G	1r
.	2A/	.	.	.	.
.	.	.	4c\	.	.
=55	=55	=55	=55	=55	=55
2B-\]	2G/	0r	2e-i\	1.g	0r
2A\	2F/	.	1d	.	.
1G	1E-i	.	.	.	.
.	.	.	2c\	4f\	.
.	.	.	.	4e\	.
=56	=56	=56	=56	=56	=56
1A	0D	1r	1d	1f	0dd
1G	.	1d	2r	1g	.
.	.	.	2G/	.	.
=57	=57	=57	=57	=57	=57
0C	0r	1.e-i	1G	2r	1.cc
.	.	.	.	2g\	.
.	.	.	[1E-i	2.g\	.
.	.	2d\	.	.	2b-\
.	.	.	.	4f\	.
=58	=58	=58	=58	=58	=58
1C	1r	2c\	2E-/]	1e-i	2a/
.	.	2B-\	4D/	.	1g
.	.	.	4C/	.	.
1D	1A	1A	1F	[1d	.
.	.	.	.	.	2f#i/
=59	=59	=59	=59	=59	=59
0GG	1.B-	0G	1D	1d]	1g
.	.	.	2.d\	2.G/	1g
.	2A/	.	.	.	.
.	.	.	4c\	4A/	.
=60	=60	=60	=60	=60	=60
0r	2G/	0r	4B-\	4B-\	0g
.	.	.	4A/	4c\	.
.	2F/	.	1A	1d	.
.	1E-i	.	.	.	.
.	.	.	2G/	2c\	.
=61	=61	=61	=61	=61	=61
1r	0D	0r	1A	1d	1f
1D	.	.	1r	1A	1d
=62	=62	=62	=62	=62	=62
0D	0r	0r	0A	1r	1r
.	.	.	.	1d	1f
=63	=63	=63	=63	=63	=63
1C	0r	0r	0c	1e	1g
1AA	.	.	.	[1f	[1a
=64	=64	=64	=64	=64	=64
0C	0r	0r	0c	2f\]	2a/]
.	.	.	.	4e\	4g/
.	.	.	.	4d\	4f/
.	.	.	.	1e	2g/
.	.	.	.	.	2a/
=65	=65	=65	=65	=65	=65
1.D	0r	0r	0F	1.f	1b-
.	.	.	.	.	1a
2E\	.	.	.	4e\	.
.	.	.	.	4d\	.
=66	=66	=66	=66	=66	=66
1.F	0r	0r	2r	1c	0a
.	.	.	2A/	.	.
.	.	.	4c\	2r	.
.	.	.	4B-\	.	.
4E\	.	.	4c\	2A/	.
4D\	.	.	4d\	.	.
=67	=67	=67	=67	=67	=67
0A	0r	0r	2e\	2c\	1r
.	.	.	1d	2d\	.
.	.	.	.	1e	[1a
.	.	.	2c\	.	.
=68	=68	=68	=68	=68	=68
2r	0r	0r	1d	1.f	1a]
2D\	.	.	.	.	.
1F	.	.	1A	.	1a
.	.	.	.	4e\	.
.	.	.	.	4d\	.
=69	=69	=69	=69	=69	=69
1G	0r	0r	1r	1e	1g
[1B-	.	.	2r	1d	1g
.	.	.	2G/	.	.
=70	=70	=70	=70	=70	=70
1B-]	0r	0r	1B-	1d	1f
1A	.	.	1c	1c	1f
=71	=71	=71	=71	=71	=71
1.G	0r	0r	2.e-i\	2.B-\	2.g/
.	.	.	4d\	4c\	4a/
.	.	.	4B-\	4d\	2b-\
.	.	.	4c\	4e\	.
2F\	.	.	2d\	2f\	[2a/
=72	=72	=72	=72	=72	=72
1E	0r	0r	4c\	2g\	4a/]
.	.	.	4B-\	.	4g/
.	.	.	4A/	2c\	1g
.	.	.	4G/	.	.
1D	.	.	1A	1d	.
.	.	.	.	.	2f#i/
=73	=73	=73	=73	=73	=73
[0GG	0r	0B-	1G	0d	0g
.	.	.	2r	.	.
.	.	.	2D/	.	.
=74	=74	=74	=74	=74	=74
0GG]	0r	1B-	0G	1r	1r
.	.	1B-	.	1d	1g
=75	=75	=75	=75	=75	=75
0r	0F	0c	1F	1.f	1.a
.	.	.	[1A	.	.
.	.	.	.	4e\	2b-\
.	.	.	.	4d\	.
=76	=76	=76	=76	=76	=76
0r	1F	0A	2A/]	2c\	0cc
.	.	.	2B-\	2B-\	.
.	1F	.	2c\	1A	.
.	.	.	2A/	.	.
=77	=77	=77	=77	=77	=77
1r	0G	0B-	1d	1G	0b-
1GG	.	.	[1G	[1g	.
=78	=78	=78	=78	=78	=78
1C	0E	0c	2G/]	1g]	1g
.	.	.	2E/	.	.
1AA	.	.	2.A/	1c	1a
.	.	.	4G/	.	.
=79	=79	=79	=79	=79	=79
0D	0F	[0d	4F/	1f	1a
.	.	.	4E/	.	.
.	.	.	2.F/	.	.
.	.	.	.	1d	1a
.	.	.	4D/	.	.
.	.	.	[2d\	.	.
=80	=80	=80	=80	=80	=80
1GG	0G	0d]	4d\]	2.B-\	1g
.	.	.	4c\	.	.
.	.	.	4B-\	.	.
.	.	.	4A/	4c\	.
1G	.	.	1B-	4d\	1b-
.	.	.	.	4c\	.
.	.	.	.	4d\	.
.	.	.	.	4e\	.
=81	=81	=81	=81	=81	=81
2.F\	[0A	0r	0c	1f	0a
4G\	.	.	.	.	.
4A\	.	.	.	2.F/	.
4B-\	.	.	.	.	.
[2A\	.	.	.	.	.
.	.	.	.	4G/	.
=82	=82	=82	=82	=82	=82
4A\]	0A]	1r	1r	4A/	2.f/
4G\	.	.	.	4B-\	.
4F\	.	.	.	1A	.
4E\	.	.	.	.	4g/
2.D\	.	[1d	2.F/	.	4a/
.	.	.	.	.	4b-\
.	.	.	.	[2f\	[2a/
4E\	.	.	4G/	.	.
=83	=83	=83	=83	=83	=83
2F\	0r	1d]	2A/	4f\]	4a/]
.	.	.	.	4e\	4g/
2G\	.	.	1B-	2.d\	1g
1D	.	1d	.	.	.
.	.	.	.	4c\	.
.	.	.	[2A/	2A/	2f/
=84	=84	=84	=84	=84	=84
1r	1r	1e-i	2A/]	1B-	1g
.	.	.	2G/	.	.
[1F	[1A	1c	1A	2r	1r
.	.	.	.	2c\	.
=85	=85	=85	=85	=85	=85
1F]	1A]	0d	1D	2A/	1r
.	.	.	.	2F/	.
1D	1A	.	[1d	[1f	1f
=86	=86	=86	=86	=86	=86
0G	1B-	0B-	1d]	2f\]	1g
.	.	.	.	4e\	.
.	.	.	.	4d\	.
.	1G	.	1B-	1e	[1b-
=87	=87	=87	=87	=87	=87
0F	0A	0r	0c	[0f	1b-]
.	.	.	.	.	1a
=88	=88	=88	=88	=88	=88
1BB-	0F	1.d	1B-	0f]	1.b-
1D	.	.	1F	.	.
.	.	2d\	.	.	8a/L
.	.	.	.	.	8g/
.	.	.	.	.	8a/
.	.	.	.	.	8b-/J
=89	=89	=89	=89	=89	=89
1C	0r	1e	1G	1r	1cc
1AA	.	1c	[1A	1e	2.cc\
.	.	.	.	.	4b-\
=90	=90	=90	=90	=90	=90
0D	1.A	0d	1A]	1.f	4a/
.	.	.	.	.	4g/
.	.	.	.	.	1a
.	.	.	1D	.	.
.	2A/	.	.	8f\L	2f/
.	.	.	.	8e\	.
.	.	.	.	8d\	.
.	.	.	.	8c\J	.
=91	=91	=91	=91	=91	=91
0GG	1B-	0B-	0G	2d\	2.g/
.	.	.	.	2c\	.
.	.	.	.	.	4a/
.	1G	.	.	2d\	1b-
.	.	.	.	2e\	.
=92	=92	=92	=92	=92	=92
[0D	0A	0r	1F	2.f\	0a
.	.	.	.	4e\	.
.	.	.	2r	2d\	.
.	.	.	[2F/	4c\	.
.	.	.	.	4B-\	.
=93	=93	=93	=93	=93	=93
0D]	0F	1.d	2F/]	1.A	1r
.	.	.	2D/	.	.
.	.	.	2.F/	.	1f
.	.	2d\	.	4G/	.
.	.	.	4E/	4F/	.
=94	=94	=94	=94	=94	=94
1r	0r	1e-i	2C/	1c	1g
.	.	.	2.c\	.	.
1F	.	1c	.	2r	[1a
.	.	.	4B-\	.	.
.	.	.	4A/	[2F/	.
.	.	.	4G/	.	.
=95	=95	=95	=95	=95	=95
1F	1.A	0d	2A/	4F/]	1a]
.	.	.	.	4G/	.
.	.	.	2D/	2A/	.
1F	.	.	[1d	2F/	1a
.	2A/	.	.	[2f\	.
=96	=96	=96	=96	=96	=96
0G	1B-	0B-	1d]	2f\]	1g
.	.	.	.	4e\	.
.	.	.	.	4d\	.
.	1G	.	1B-	1e	1b-
=97	=97	=97	=97	=97	=97
1F	0A	0r	2c\	1f	1a
.	.	.	1d	.	.
2D\	.	.	.	1F	2.f/
[2F\	.	.	4c\	.	.
.	.	.	4B-\	.	4g/
=98	=98	=98	=98	=98	=98
4F\]	0F	0r	2A/	1.f	2a/
4E\	.	.	.	.	.
4D\	.	.	1d	.	2.b-\
4C/	.	.	.	.	.
2BB-/	.	.	.	.	.
.	.	.	.	.	4a/
2F\	.	.	2c\	2e\	[2a/
=99	=99	=99	=99	=99	=99
2G\	0r	0r	2B-\	2d\	4a/]
.	.	.	.	.	4g/
2E\	.	.	2G/	2c\	1g
1D	.	.	1A	1d	.
.	.	.	.	.	2f#i/
=100	=100	=100	=100	=100	=100
2r	0r	0r	1G	1.B-	1g
2G\	.	.	.	.	.
1G	.	.	2r	.	1g
.	.	.	2d\	4A/	.
.	.	.	.	4G/	.
=101	=101	=101	=101	=101	=101
1E	0r	0r	1.e	1G	1.g
1C	.	.	.	1g	.
.	.	.	2d\	.	2f/
=102	=102	=102	=102	=102	=102
1r	0r	0r	1c	1.g	1e
1G	.	.	1d	.	1d
.	.	.	.	2f\	.
=103	=103	=103	=103	=103	=103
0G	0r	0B-	1r	1e-i	1r
.	.	.	[1G	1d	1g
=104	=104	=104	=104	=104	=104
1E-i	0r	1B-	1G]	0e-i	0g
1C	.	1c	1E-i	.	.
=105	=105	=105	=105	=105	=105
0D	0F	1A	2.F/	0d	0f
.	.	.	4E/	.	.
.	.	2B-\	4F/	.	.
.	.	.	4G/	.	.
.	.	[2d\	[2A/	.	.
=106	=106	=106	=106	=106	=106
1r	1F	4d\]	4A/]	1r	0d
.	.	4c\	4G/	.	.
.	.	1c	4F/	.	.
.	.	.	4E/	.	.
1GG	1G	.	1D	1d	.
.	.	2Bni\	.	.	.
=107	=107	=107	=107	=107	=107
2.C/	1E-i	0c	2r	2.e-i\	1r
.	.	.	2C/	.	.
4BB-/	.	.	.	4d\	.
4AA/	2F/	.	1F	4c\	1f
4GG/	.	.	.	4B-\	.
2FF/	[2A/	.	.	[2c\	.
=108	=108	=108	=108	=108	=108
2C/	4A/]	0r	2E/	4c\]	1g
.	4G/	.	.	4A/	.
2BB-/	1G	.	1D	2B-\	.
1AA	.	.	.	1c	1a
.	2F#i/	.	2C/	.	.
=109	=109	=109	=109	=109	=109
0GG	0G	0r	1D	[0B-	1b-
.	.	.	1d	.	1g
=110	=110	=110	=110	=110	=110
1G	0r	1r	2d\	1B-]	1b-
.	.	.	2.d\	.	.
2F\	.	1d	.	1r	2a/
.	.	.	4c\	.	.
[2G\	.	.	4B-\	.	[2b-\
.	.	.	4A/	.	.
=111	=111	=111	=111	=111	=111
4G\]	0r	1.e-i	2G/	0r	4b-\]
4F\	.	.	.	.	4a/
4E-i\	.	.	2.c\	.	4g/
4D\	.	.	.	.	4f/
2C/	.	.	.	.	2g/
.	.	.	4B-\	.	.
2F\	.	2d\	2A/	.	2f/
=112	=112	=112	=112	=112	=112
4E\	1r	2c\	1G	2r	2r
4D\	.	.	.	.	.
1G	.	2B-\	.	2d\	2g/
.	1A	1A	1r	2e\	2a/
2F\	.	.	.	2f\	2cc\
=113	=113	=113	=113	=113	=113
1G	1.B-	1G	2r	2d\	2b-\
.	.	.	2d\	2.g\	2.dd\
1D	.	1r	2.d\	.	.
.	.	.	.	4e\	4cc\
.	2A/	.	.	2f\	2a/
.	.	.	4c\	.	.
=114	=114	=114	=114	=114	=114
2r	2G/	0r	2d\	4B-\	2b-\
.	.	.	.	4c\	.
2D\	2F/	.	2D/	2.d\	2.a/
2AA/	1E	.	1A	.	.
.	.	.	.	4B-\	4g/
2AA/	.	.	.	2c\	2e/
=115	=115	=115	=115	=115	=115
1D	1D	1r	2r	2F/	2f/
.	.	.	2d\	2f\	4d/
.	.	.	.	.	4e/
1D	1r	1d	2d\	2f\	4f/
.	.	.	.	.	4g/
.	.	.	2d\	2f\	4a/
.	.	.	.	.	4b-\
=116	=116	=116	=116	=116	=116
1.C	0r	1.e-i	0G	4g\	4cc\
.	.	.	.	4f\	4b-\
.	.	.	.	4e-i\	2.g/
.	.	.	.	4d\	.
.	.	.	.	2c\	.
.	.	.	.	.	4a/
2BB-/	.	2d\	.	2d\	4b-\
.	.	.	.	.	4cc\
=117	=117	=117	=117	=117	=117
1C	1r	2c\	1E	1e	2a/
.	.	2B-\	.	.	1g
1D	1A	1A	1F	[1d	.
.	.	.	.	.	2f#i/
=118	=118	=118	=118	=118	=118
1GG	1.B-	[0Gl	2D/	1d]	[0gl
.	.	.	2d\	.	.
2.G\	.	.	2d\	1B-	.
.	2A/	.	2d\	.	.
4F\	.	.	.	.	.
=119	=119	=119	=119	=119	=119
2E-i\	2G/	0G_	1G	0c	0g_
2D\	2F/	.	.	.	.
1C	1E-i	.	1c	.	.
=120	=120	=120	=120	=120	=120
0GGl	0Dl	0G]	0B-l	0dl	0g]
!!LO:LB:i:g=z
=121||	=121||	=121||	=121||	=121||	=121||
*>B	*>B	*>B	*>B	*>B	*>B
*clefF4	*clefGv2	*clefGv2	*clefGv2	*clefGv2	*clefG2
*k[b-]	*k[b-]	*k[b-]	*k[b-]	*k[b-]	*k[b-]
*M2/1	*M2/1	*M2/1	*M2/1	*M2/1	*M2/1
*met(C|)	*met(C|)	*met(C|)	*met(C|)	*met(C|)	*met(C|)
!!section: Tu suscipe
!!!OMD: Tu suscipe
!	!	!LO:TX:Z=30:t=Canon at the lower fourth	!	!	!
[0F	0r	0r	0A	0c	[0a
=122	=122	=122	=122	=122	=122
0F]	0r	0r	[0c	1A	0a]
.	.	.	.	1F	.
=123	=123	=123	=123	=123	=123
2.C/	0r	0r	1c]	1.G	0cc
4D\	.	.	.	.	.
2E\	.	.	[1G	.	.
2F\	.	.	.	2A/	.
=124	=124	=124	=124	=124	=124
0G	0r	0r	2G/]	2B-\	0b-
.	.	.	2A/	2c\	.
.	.	.	2B-\	4d\	.
.	.	.	.	4G/	.
.	.	.	2c\	[2g\	.
=125	=125	=125	=125	=125	=125
1D	0r	0r	1d	2g\]	1a
.	.	.	.	2f\	.
1E	.	.	1G	2e\	[1g
.	.	.	.	2c\	.
=126	=126	=126	=126	=126	=126
0D	0r	0r	0A	[0d	2g/]
.	.	.	.	.	4f#i/
.	.	.	.	.	4e/
.	.	.	.	.	1f#i
=127	=127	=127	=127	=127	=127
0GG	0r	0r	1r	0d_	0g
.	.	.	1G	.	.
=128	=128	=128	=128	=128	=128
1G	0r	0r	1B-	0d]	1r
1G	.	.	1B-	.	[1g
=129	=129	=129	=129	=129	=129
1G	0r	0r	0B-	1d	1g]
[1B-	.	.	.	1d	1f
=130	=130	=130	=130	=130	=130
1B-]	0r	0r	1G	1d	1g
1A	.	.	[1c	[1f	1a
=131	=131	=131	=131	=131	=131
0G	0r	0r	2c\]	1f]	0b-
.	.	.	4B-\	.	.
.	.	.	4A/	.	.
.	.	.	1B-	1e	.
=132	=132	=132	=132	=132	=132
1.F	0r	0r	[0c	1c	1a
.	.	.	.	[1f	1f
4E\	.	.	.	.	.
4D\	.	.	.	.	.
=133	=133	=133	=133	=133	=133
0C	0r	0r	0c]	2f\]	0g
.	.	.	.	4e\	.
.	.	.	.	4d\	.
.	.	.	.	1e	.
=134	=134	=134	=134	=134	=134
1r	0r	0r	0F	1f	[0f
[1BB-	.	.	.	[1d	.
=135	=135	=135	=135	=135	=135
1BB-]	0r	0r	1r	1d]	0f_
1AA	.	.	[1F	1c	.
=136	=136	=136	=136	=136	=136
1.BB-	0r	0B-	1F]	[0d	0f]
.	.	.	1F	.	.
2AA/	.	.	.	.	.
=137	=137	=137	=137	=137	=137
0GG	0r	1B-	1G	0d]	0r
.	.	1B-	1G	.	.
=138	=138	=138	=138	=138	=138
0r	0F	0c	1.A	1r	0cc
.	.	.	.	[1f	.
.	.	.	2G/	.	.
=139	=139	=139	=139	=139	=139
1r	1F	0A	2F/	1f]	1cc
.	.	.	2E/	.	.
1D	1F	.	[1D	1f	[1dd
=140	=140	=140	=140	=140	=140
1BB-	0G	0B-	1D]	1.d	2dd\]
.	.	.	.	.	2cc\
1GG	.	.	1G	.	2.b-\
.	.	.	.	[2g\	.
.	.	.	.	.	4a/
=141	=141	=141	=141	=141	=141
0C	0E	0c	1G	4g\]	0g
.	.	.	.	4f\	.
.	.	.	.	4e\	.
.	.	.	.	4d\	.
.	.	.	1G	1e	.
=142	=142	=142	=142	=142	=142
2.BB-/	0F	0d	1B-	1d	0r
4C/	.	.	.	.	.
2D\	.	.	2A/	2r	.
2BB-/	.	.	[2B-\	2d\	.
=143	=143	=143	=143	=143	=143
0E-	0G	0r	4B-\]	2.B-\	1r
.	.	.	4A/	.	.
.	.	.	1d	.	.
.	.	.	.	4A/	.
.	.	.	.	2B-\	1g
.	.	.	2c\	2c\	.
=144	=144	=144	=144	=144	=144
0D	0A	0r	2.d\	2F/	2.f/
.	.	.	.	1f	.
.	.	.	4c\	.	4g/
.	.	.	2A/	.	1a
.	.	.	[2d\	2f\	.
=145	=145	=145	=145	=145	=145
1.G	0r	0r	4d\]	2.g\	1.b-
.	.	.	4c\	.	.
.	.	.	4B-\	.	.
.	.	.	4A/	4f\	.
.	.	.	2G/	4e\	.
.	.	.	.	4d\	.
2F\	.	.	2A/	[2d\	[2a/
=146	=146	=146	=146	=146	=146
1E	0r	1r	2B-\	2d\]	4a/]
.	.	.	.	.	4g/
.	.	.	2c\	2c\	1g
1D	.	[1d	1A	1d	.
.	.	.	.	.	2f#i/
=147	=147	=147	=147	=147	=147
0GG	0r	1d]	2r	1B-	0g
.	.	.	2G/	.	.
.	.	1d	1G	2r	.
.	.	.	.	2B-\	.
=148	=148	=148	=148	=148	=148
0r	1r	1e-	1E-i	0c	1g
.	[1A	1c	[1F	.	[1a
=149	=149	=149	=149	=149	=149
1r	1A]	0d	2F/]	1A	2a/]
.	.	.	2E-i/	.	2g/
2r	1A	.	1D	[1d	2.f/
2D\	.	.	.	.	.
.	.	.	.	.	4e/
=150	=150	=150	=150	=150	=150
1G	1B-	0B-	0r	1d]	1d
1E-i	1G	.	.	1e-	1r
=151	=151	=151	=151	=151	=151
1.F	0A	0r	0r	0c	0f
2E\	.	.	.	.	.
=152	=152	=152	=152	=152	=152
0D	0F	1r	1r	0d	0f
.	.	[1d	1D	.	.
=153	=153	=153	=153	=153	=153
0r	0r	1d]	0G	1r	0g
.	.	1d	.	1B-	.
=154	=154	=154	=154	=154	=154
0r	1r	1e-i	1E-i	0c	1g
.	[1A	1c	[1F	.	[1a
=155	=155	=155	=155	=155	=155
0D	1A]	0d	2F/]	1A	1a]
.	.	.	2E-i/	.	.
.	1A	.	1D	[1d	1f
=156	=156	=156	=156	=156	=156
1G	1B-	0B-	0r	1d]	0g
1E-i	1G	.	.	1e-i	.
=157	=157	=157	=157	=157	=157
0F	0A	0r	1r	1c	[0f
.	.	.	1A	1c	.
=158	=158	=158	=158	=158	=158
1BB-	0F	1r	1.B-	1.d	0f]
1BB-	.	[1d	.	.	.
.	.	.	4A/	4c\	.
.	.	.	4G/	4B-\	.
=159	=159	=159	=159	=159	=159
0D	0r	1d]	1F	0A	1r
.	.	1d	1F	.	1a
=160	=160	=160	=160	=160	=160
1C	1r	1e-i	1G	1r	1.cc
[1F	[1A	1c	1A	1c	.
.	.	.	.	.	2b-\
=161	=161	=161	=161	=161	=161
1F]	1A]	0d	1D	0f	0a
1D	1A	.	[1d	.	.
=162	=162	=162	=162	=162	=162
0G	1B-	0B-	2d\]	1.d	0g
.	.	.	2c\	.	.
.	1G	.	1B-	.	.
.	.	.	.	8d\L	.
.	.	.	.	8c\	.
.	.	.	.	8d\	.
.	.	.	.	8e\J	.
=163	=163	=163	=163	=163	=163
[0D	0A	0r	1A	2f\	1f
.	.	.	.	2.F/	.
.	.	.	1F	.	2.f/
.	.	.	.	4G/	.
.	.	.	.	4A/	.
.	.	.	.	4B-\	4g/
=164	=164	=164	=164	=164	=164
0D]	0F	0r	2.F/	2A/	2a/
.	.	.	.	2d\	2b-\
.	.	.	4G/	.	.
.	.	.	2A/	2.d\	4a/
.	.	.	.	.	4g/
.	.	.	[2B-\	.	4f/
.	.	.	.	4e\	4e/
=165	=165	=165	=165	=165	=165
1BB-	0r	0r	4B-\]	4f\	2d/
.	.	.	4A/	4d\	.
.	.	.	2.d\	2g\	2.b-\
2.BB-/	.	.	.	2.f\	.
.	.	.	4c\	.	4a/
.	.	.	2B-\	.	2g/
4C/	.	.	.	4e\	.
=166	=166	=166	=166	=166	=166
2D\	0r	0r	2A/	2d\	2f/
2E-i\	.	.	2G/	2c\	1g
1D	.	.	1A	1d	.
.	.	.	.	.	2f#i/
=167	=167	=167	=167	=167	=167
2r	0r	0r	1G	1.B-	1g
2G\	.	.	.	.	.
1G	.	.	2r	.	1g
.	.	.	2d\	4A/	.
.	.	.	.	4G/	.
=168	=168	=168	=168	=168	=168
1E-i	0r	0r	1.e-i	1G	1.g
1C	.	.	.	1g	.
.	.	.	2d\	.	2f/
=169	=169	=169	=169	=169	=169
1r	0r	0r	2.c\	1.g	1e-i
.	.	.	4B-\	.	.
1G	.	.	1d	.	1d
.	.	.	.	2f\	.
=170	=170	=170	=170	=170	=170
0G	0r	0B-	1r	1e-i	1r
.	.	.	[1G	1d	1g
=171	=171	=171	=171	=171	=171
1E-i	0r	1B-	1G]	0e-i	0g
1C	.	1c	1E-i	.	.
=172	=172	=172	=172	=172	=172
0D	0F	1A	2.F/	0d	0f
.	.	.	4E/	.	.
.	.	2B-\	4F/	.	.
.	.	.	4G/	.	.
.	.	[2d\	[2A/	.	.
=173	=173	=173	=173	=173	=173
1r	1F	4d\]	4A/]	1r	0d
.	.	4c\	4G/	.	.
.	.	1c	4F/	.	.
.	.	.	4E/	.	.
1GG	1G	.	1D	1d	.
.	.	2Bni\	.	.	.
=174	=174	=174	=174	=174	=174
2.C/	1E	0c	2r	2.e\	1r
.	.	.	2C/	.	.
4BB-/	.	.	.	4d\	.
4AA/	2F/	.	1F	4c\	1f
4GG/	.	.	.	4B-\	.
2FF/	[2A/	.	.	[2c\	.
=175	=175	=175	=175	=175	=175
2C/	4A/]	0r	2E/	4c\]	1g
.	4G/	.	.	4A/	.
2BB-/	1G	.	1D	2B-\	.
1AA	.	.	.	1c	1a
.	2F#i/	.	2C/	.	.
=176	=176	=176	=176	=176	=176
0GG	0G	0r	1D	[0B-	1b-
.	.	.	1d	.	1g
=177	=177	=177	=177	=177	=177
1G	0r	1r	2d\	1B-]	1b-
.	.	.	2.d\	.	.
2F\	.	1d	.	1r	2a/
.	.	.	4c\	.	.
[2G\	.	.	4B-\	.	[2b-\
.	.	.	4A/	.	.
=178	=178	=178	=178	=178	=178
4G\]	0r	1.e-i	2G/	0r	4b-\]
4F\	.	.	.	.	4a/
4E-i\	.	.	2.c\	.	4g/
4D\	.	.	.	.	4f/
2C/	.	.	.	.	2g/
.	.	.	4B-\	.	.
2F\	.	2d\	2A/	.	2f/
=179	=179	=179	=179	=179	=179
4E\	1r	2c\	1G	2r	2r
4D\	.	.	.	.	.
1G	.	2B-\	.	2d\	2g/
.	1A	1A	1r	2e\	2a/
2F\	.	.	.	2f\	2cc\
=180	=180	=180	=180	=180	=180
1G	1.B-	1G	2r	2d\	2b-\
.	.	.	2d\	2.g\	2.dd\
1D	.	1r	2.d\	.	.
.	.	.	.	4e\	4cc\
.	2A/	.	.	2f\	2a/
.	.	.	4c\	.	.
=181	=181	=181	=181	=181	=181
2r	2G/	0r	2d\	4B-\	2b-\
.	.	.	.	4c\	.
2D\	2F/	.	2D/	2.d\	2.a/
2AA/	1E	.	1A	.	.
.	.	.	.	4B-\	4g/
2AA/	.	.	.	2c\	2e/
=182	=182	=182	=182	=182	=182
1D	1D	1r	2r	2F/	2f/
.	.	.	2d\	2f\	4d/
.	.	.	.	.	4e/
1D	1r	1d	2d\	2f\	4f/
.	.	.	.	.	4g/
.	.	.	2d\	2f\	4a/
.	.	.	.	.	4b-\
=183	=183	=183	=183	=183	=183
1.C	0r	1.e-i	0G	4g\	4cc\
.	.	.	.	4f\	4b-\
.	.	.	.	4e-i\	2.g/
.	.	.	.	4d\	.
.	.	.	.	2c\	.
.	.	.	.	.	4a/
2BB-/	.	2d\	.	2d\	4b-\
.	.	.	.	.	4cc\
=184	=184	=184	=184	=184	=184
1C	1r	2c\	1E-	1e-	2a/
.	.	2B-\	.	.	1g
1D	1A	1A	1F	[1d	.
.	.	.	.	.	2f#i/
=185	=185	=185	=185	=185	=185
1GG	1.B-	[0Gl	2D/	1d]	[0gl
.	.	.	2d\	.	.
2.G\	.	.	2d\	1B-	.
.	2A/	.	2d\	.	.
4F\	.	.	.	.	.
=186	=186	=186	=186	=186	=186
2E-i\	2G/	0G_	1G	0c	0g_
2D\	2F/	.	.	.	.
1C	1E-i	.	1c	.	.
=187	=187	=187	=187	=187	=187
0GGl	0Dl	0G]	0B-l	0dl	0g]
==	==	==	==	==	==
*-	*-	*-	*-	*-	*-
!!!RDF**kern: l=long note in original notation
!!!RDF**kern: i=editorial accidental
!!!RDF**kern: V=start of tuplet marker
!!!RDF**kern: Z=end of tuplet marker
!!!ENC:	/Will Watson 06/07/2011
!!!END:	2012/01/21/
!!!EED:	Jesse Rodin
!!!EEV:	2012/06/24/
!!attribution-level@Jos: 5 (doubtful)
!!!ONB:	Translated from MusicXML and edited on 2012/06/24/ by Craig Sapp
!!muse2ps: T^@{OPR}^u^@{ONM}{. }@{OTL}^C^@{COA}?\n@{SCT}^i2I150v95,95,95,95,95,130Q16c125
